client/public/img/game/shared/emotes/side_eye_face.svg

<?xml version="1.0" encoding="UTF-8" standalone="no"?>
<!-- Created with Inkscape (http://www.inkscape.org/) -->

<svg
   width="84.000008"
   height="84.000008"
   viewBox="0 0 22.225002 22.225002"
   version="1.1"
   id="svg1"
   xml:space="preserve"
   xmlns:xlink="http://www.w3.org/1999/xlink"
   xmlns="http://www.w3.org/2000/svg"
   xmlns:svg="http://www.w3.org/2000/svg"><defs
     id="defs1"><linearGradient
       id="linearGradient6401"><stop
         style="stop-color:#ffed91;stop-opacity:1;"
         offset="0"
         id="stop6397" /><stop
         style="stop-color:#ffd817;stop-opacity:0;"
         offset="1"
         id="stop6399" /></linearGradient><linearGradient
       id="linearGradient4048"><stop
         style="stop-color:#cab211;stop-opacity:1;"
         offset="0"
         id="stop4044" /><stop
         style="stop-color:#ff4a1b;stop-opacity:0;"
         offset="1"
         id="stop4046" /></linearGradient><linearGradient
       xlink:href="#linearGradient4048"
       id="linearGradient4050"
       x1="5.517386"
       y1="11.645055"
       x2="6.8603635"
       y2="9.3189497"
       gradientUnits="userSpaceOnUse"
       gradientTransform="matrix(1.4197118,0,0,1.4197118,-2.7416146,-4.8299287)" /><filter
       id="mask-powermask-path-effect5420_inverse"
       style="color-interpolation-filters:sRGB"
       height="100"
       width="100"
       x="-50"
       y="-50"><feColorMatrix
         id="mask-powermask-path-effect5420_primitive1"
         values="1"
         type="saturate"
         result="fbSourceGraphic" /><feColorMatrix
         id="mask-powermask-path-effect5420_primitive2"
         values="-1 0 0 0 1 0 -1 0 0 1 0 0 -1 0 1 0 0 0 1 0 "
         in="fbSourceGraphic" /></filter><filter
       id="mask-powermask-path-effect5425_inverse"
       style="color-interpolation-filters:sRGB"
       height="100"
       width="100"
       x="-50"
       y="-50"><feColorMatrix
         id="mask-powermask-path-effect5425_primitive1"
         values="1"
         type="saturate"
         result="fbSourceGraphic" /><feColorMatrix
         id="mask-powermask-path-effect5425_primitive2"
         values="-1 0 0 0 1 0 -1 0 0 1 0 0 -1 0 1 0 0 0 1 0 "
         in="fbSourceGraphic" /></filter><filter
       id="mask-powermask-path-effect5430_inverse"
       style="color-interpolation-filters:sRGB"
       height="100"
       width="100"
       x="-50"
       y="-50"><feColorMatrix
         id="mask-powermask-path-effect5430_primitive1"
         values="1"
         type="saturate"
         result="fbSourceGraphic" /><feColorMatrix
         id="mask-powermask-path-effect5430_primitive2"
         values="-1 0 0 0 1 0 -1 0 0 1 0 0 -1 0 1 0 0 0 1 0 "
         in="fbSourceGraphic" /></filter><filter
       id="mask-powermask-path-effect5470_inverse"
       style="color-interpolation-filters:sRGB"
       height="100"
       width="100"
       x="-50"
       y="-50"><feColorMatrix
         id="mask-powermask-path-effect5470_primitive1"
         values="1"
         type="saturate"
         result="fbSourceGraphic" /><feColorMatrix
         id="mask-powermask-path-effect5470_primitive2"
         values="-1 0 0 0 1 0 -1 0 0 1 0 0 -1 0 1 0 0 0 1 0 "
         in="fbSourceGraphic" /></filter><filter
       id="mask-powermask-path-effect5475_inverse"
       style="color-interpolation-filters:sRGB"
       height="100"
       width="100"
       x="-50"
       y="-50"><feColorMatrix
         id="mask-powermask-path-effect5475_primitive1"
         values="1"
         type="saturate"
         result="fbSourceGraphic" /><feColorMatrix
         id="mask-powermask-path-effect5475_primitive2"
         values="-1 0 0 0 1 0 -1 0 0 1 0 0 -1 0 1 0 0 0 1 0 "
         in="fbSourceGraphic" /></filter><filter
       id="mask-powermask-path-effect5480_inverse"
       style="color-interpolation-filters:sRGB"
       height="100"
       width="100"
       x="-50"
       y="-50"><feColorMatrix
         id="mask-powermask-path-effect5480_primitive1"
         values="1"
         type="saturate"
         result="fbSourceGraphic" /><feColorMatrix
         id="mask-powermask-path-effect5480_primitive2"
         values="-1 0 0 0 1 0 -1 0 0 1 0 0 -1 0 1 0 0 0 1 0 "
         in="fbSourceGraphic" /></filter><filter
       id="mask-powermask-path-effect5485_inverse"
       style="color-interpolation-filters:sRGB"
       height="100"
       width="100"
       x="-50"
       y="-50"><feColorMatrix
         id="mask-powermask-path-effect5485_primitive1"
         values="1"
         type="saturate"
         result="fbSourceGraphic" /><feColorMatrix
         id="mask-powermask-path-effect5485_primitive2"
         values="-1 0 0 0 1 0 -1 0 0 1 0 0 -1 0 1 0 0 0 1 0 "
         in="fbSourceGraphic" /></filter><clipPath
       clipPathUnits="userSpaceOnUse"
       id="clipPath5624"><ellipse
         style="display:none;fill:#ffffff;fill-opacity:1;fill-rule:nonzero;stroke:#010100;stroke-width:0.132292;stroke-linecap:round;stroke-linejoin:bevel;stroke-miterlimit:4;stroke-dasharray:none;stroke-dashoffset:0;stroke-opacity:1;paint-order:markers stroke fill"
         id="circle5626"
         cx="4.8322487"
         cy="10.787068"
         rx="1.950802"
         ry="3.5463996"
         d="m 6.7830507,10.787068 a 1.950802,3.5463996 0 0 1 -1.950802,3.5464 1.950802,3.5463996 0 0 1 -1.950802,-3.5464 1.950802,3.5463996 0 0 1 1.950802,-3.5463992 1.950802,3.5463996 0 0 1 1.950802,3.5463992 z" /><path
         id="lpe_path-effect5628"
         style="fill:#ffffff;fill-opacity:1;fill-rule:nonzero;stroke:#010100;stroke-width:0.132292;stroke-linecap:round;stroke-linejoin:bevel;stroke-miterlimit:4;stroke-dasharray:none;stroke-dashoffset:0;stroke-opacity:1;paint-order:markers stroke fill"
         class="powerclip"
         d="M -5.0000002,-5.0000002 H 27.225003 V 27.225003 H -5.0000002 Z M 6.7830507,10.787068 a 1.950802,3.5463996 0 0 0 -1.950802,-3.5463992 1.950802,3.5463996 0 0 0 -1.950802,3.5463992 1.950802,3.5463996 0 0 0 1.950802,3.5464 1.950802,3.5463996 0 0 0 1.950802,-3.5464 z" /></clipPath><clipPath
       clipPathUnits="userSpaceOnUse"
       id="clipath_lpe_path-effect5641"><circle
         style="display:none;fill:#ffffff;fill-opacity:1;fill-rule:nonzero;stroke:#010100;stroke-width:0.132292;stroke-linecap:round;stroke-linejoin:bevel;stroke-miterlimit:4;stroke-dasharray:none;stroke-dashoffset:0;stroke-opacity:1;paint-order:markers stroke fill"
         id="ellipse5643"
         cx="4.8322487"
         cy="10.787068"
         r="5.0310798"
         d="M 9.8633285,10.787068 A 5.0310798,5.0310798 0 0 1 4.8322487,15.818148 5.0310798,5.0310798 0 0 1 -0.19883108,10.787068 5.0310798,5.0310798 0 0 1 4.8322487,5.7559886 5.0310798,5.0310798 0 0 1 9.8633285,10.787068 Z" /><path
         id="lpe_path-effect5641"
         style="fill:#ffffff;fill-opacity:1;fill-rule:nonzero;stroke:#010100;stroke-width:0.132292;stroke-linecap:round;stroke-linejoin:bevel;stroke-miterlimit:4;stroke-dasharray:none;stroke-dashoffset:0;stroke-opacity:1;paint-order:markers stroke fill"
         class="powerclip"
         d="M -4.4787703,-4.4787703 H 26.703773 V 26.703773 H -4.4787703 Z M 6.7830507,10.787068 a 1.950802,3.5463996 0 0 0 -1.950802,-3.5463992 1.950802,3.5463996 0 0 0 -1.950802,3.5463992 1.950802,3.5463996 0 0 0 1.950802,3.5464 1.950802,3.5463996 0 0 0 1.950802,-3.5464 z" /></clipPath><linearGradient
       xlink:href="#linearGradient6401"
       id="linearGradient6403"
       x1="10.661146"
       y1="5.8420105"
       x2="10.661146"
       y2="17.449478"
       gradientUnits="userSpaceOnUse" /><clipPath
       clipPathUnits="userSpaceOnUse"
       id="clipath_lpe_path-effect6409"><ellipse
         style="display:none;fill:#ffffff;fill-opacity:1;fill-rule:nonzero;stroke:#010100;stroke-width:0.132292;stroke-linecap:round;stroke-linejoin:bevel;stroke-miterlimit:4;stroke-dasharray:none;stroke-dashoffset:0;stroke-opacity:1;paint-order:markers stroke fill"
         id="ellipse6411"
         cx="4.8322487"
         cy="10.787068"
         rx="1.950802"
         ry="3.5463996"
         d="m 6.7830507,10.787068 a 1.950802,3.5463996 0 0 1 -1.950802,3.5464 1.950802,3.5463996 0 0 1 -1.950802,-3.5464 1.950802,3.5463996 0 0 1 1.950802,-3.5463992 1.950802,3.5463996 0 0 1 1.950802,3.5463992 z" /><path
         id="lpe_path-effect6409"
         style="fill:#ffffff;fill-opacity:1;fill-rule:nonzero;stroke:#010100;stroke-width:0.132292;stroke-linecap:round;stroke-linejoin:bevel;stroke-miterlimit:4;stroke-dasharray:none;stroke-dashoffset:0;stroke-opacity:1;paint-order:markers stroke fill"
         class="powerclip"
         d="M -4.4787703,-4.4787703 H 26.703773 V 26.703773 H -4.4787703 Z M 6.7830507,10.787068 a 1.950802,3.5463996 0 0 0 -1.950802,-3.5463992 1.950802,3.5463996 0 0 0 -1.950802,3.5463992 1.950802,3.5463996 0 0 0 1.950802,3.5464 1.950802,3.5463996 0 0 0 1.950802,-3.5464 z" /></clipPath></defs><path
     id="path1"
     style="fill:#ffffff;stroke:none;stroke-width:0.129659;stroke-linecap:round;stroke-linejoin:bevel;paint-order:markers stroke fill"
     d="M 4.8322632 7.1365153 C 3.7243339 7.1365153 2.824117 8.7733314 2.824117 10.787455 C 2.824117 12.801583 3.7243339 14.437878 4.8322632 14.437878 C 5.9401924 14.437878 6.8404093 12.801583 6.8404093 10.787455 C 6.8404093 8.7733314 5.9401924 7.1365153 4.8322632 7.1365153 z " /><ellipse
     style="fill:#000000;fill-opacity:1;stroke:#000000;stroke-width:0.375632;stroke-linecap:round;stroke-dasharray:none;stroke-opacity:1"
     id="ellipse4052"
     ry="1.4018086"
     rx="1.3711168"
     cy="10.787069"
     cx="6.1297054" /><ellipse
     style="fill:#000000;fill-opacity:1;stroke:url(#linearGradient4050);stroke-width:0.375632;stroke-linecap:round;stroke-dasharray:none;stroke-opacity:1"
     id="path2555"
     ry="1.4018086"
     rx="1.3711168"
     cy="10.787069"
     cx="6.1297054" /><ellipse
     style="fill:#ffffff;fill-opacity:1;stroke:#ffffff;stroke-width:0.294693;stroke-linecap:round;stroke-dasharray:none;stroke-opacity:1"
     id="path4158"
     cx="6.6285543"
     cy="9.9641724"
     rx="0.3278102"
     ry="0.32781029" /><g
     id="g5637"
     style="stroke:#010100;stroke-opacity:1;fill:none"
     clip-path="none"><path
       style="fill:#e9b500;fill-opacity:1;fill-rule:nonzero;stroke:none;stroke-width:1.04246;stroke-linecap:round;stroke-linejoin:round;stroke-miterlimit:4;stroke-dasharray:none;stroke-dashoffset:0;stroke-opacity:1;paint-order:normal"
       id="path6405"
       clip-path="url(#clipath_lpe_path-effect6409)"
       d="M 21.703773,11.112501 A 10.591271,10.591271 0 0 1 11.112501,21.703773 10.591271,10.591271 0 0 1 0.52122974,11.112501 10.591271,10.591271 0 0 1 11.112501,0.52122974 10.591271,10.591271 0 0 1 21.703773,11.112501 Z" /><path
       style="fill:url(#linearGradient6403);fill-opacity:1;fill-rule:nonzero;stroke:none;stroke-width:1.04246;stroke-linecap:round;stroke-linejoin:round;stroke-miterlimit:4;stroke-dasharray:none;stroke-dashoffset:0;stroke-opacity:1;paint-order:normal"
       id="path5633"
       clip-path="url(#clipath_lpe_path-effect5641)"
       d="M 21.703773,11.112501 A 10.591271,10.591271 0 0 1 11.112501,21.703773 10.591271,10.591271 0 0 1 0.52122974,11.112501 10.591271,10.591271 0 0 1 11.112501,0.52122974 10.591271,10.591271 0 0 1 21.703773,11.112501 Z" /></g><g
     id="g2501"><path
       style="fill:none;fill-opacity:1;fill-rule:nonzero;stroke:#694a03;stroke-width:1.04246;stroke-linecap:round;stroke-linejoin:round;stroke-miterlimit:4;stroke-dasharray:none;stroke-dashoffset:0;stroke-opacity:1;paint-order:normal"
       id="path10-38"
       clip-path="url(#clipPath5624)"
       d="M 21.703773,11.112501 A 10.591271,10.591271 0 0 1 11.112501,21.703773 10.591271,10.591271 0 0 1 0.52122974,11.112501 10.591271,10.591271 0 0 1 11.112501,0.52122974 10.591271,10.591271 0 0 1 21.703773,11.112501 Z" /><path
       style="fill:#ffc703;fill-opacity:1;stroke:#694a03;stroke-width:0.98954167;stroke-linecap:round;stroke-dasharray:none;stroke-opacity:1"
       d="m 3.5921542,18.570343 2.3415706,-0.07562"
       id="path2447" /></g><style
     type="text/css"
     id="style16758">
	.st0{fill:#FFC300;stroke:#695000;stroke-width:13;stroke-miterlimit:10;}
	.st1{fill:#FFC300;stroke:#695000;stroke-width:13;stroke-linecap:round;stroke-miterlimit:10;}
</style><style
     type="text/css"
     id="style16758-4">
	.st0{fill:#FFC300;stroke:#695000;stroke-width:13;stroke-miterlimit:10;}
	.st1{fill:#FFC300;stroke:#695000;stroke-width:13;stroke-linecap:round;stroke-miterlimit:10;}
</style><style
     type="text/css"
     id="style16758-5">
	.st0{fill:#FFC300;stroke:#695000;stroke-width:13;stroke-miterlimit:10;}
	.st1{fill:#FFC300;stroke:#695000;stroke-width:13;stroke-linecap:round;stroke-miterlimit:10;}
</style><style
     type="text/css"
     id="style16758-9">
	.st0{fill:#FFC300;stroke:#695000;stroke-width:13;stroke-miterlimit:10;}
	.st1{fill:#FFC300;stroke:#695000;stroke-width:13;stroke-linecap:round;stroke-miterlimit:10;}
</style><style
     type="text/css"
     id="style16758-0">
	.st0{fill:#FFC300;stroke:#695000;stroke-width:13;stroke-miterlimit:10;}
	.st1{fill:#FFC300;stroke:#695000;stroke-width:13;stroke-linecap:round;stroke-miterlimit:10;}
</style><style
     type="text/css"
     id="style16758-4-5">
	.st0{fill:#FFC300;stroke:#695000;stroke-width:13;stroke-miterlimit:10;}
	.st1{fill:#FFC300;stroke:#695000;stroke-width:13;stroke-linecap:round;stroke-miterlimit:10;}
</style><style
     type="text/css"
     id="style16758-5-0">
	.st0{fill:#FFC300;stroke:#695000;stroke-width:13;stroke-miterlimit:10;}
	.st1{fill:#FFC300;stroke:#695000;stroke-width:13;stroke-linecap:round;stroke-miterlimit:10;}
</style><style
     type="text/css"
     id="style16758-9-4">
	.st0{fill:#FFC300;stroke:#695000;stroke-width:13;stroke-miterlimit:10;}
	.st1{fill:#FFC300;stroke:#695000;stroke-width:13;stroke-linecap:round;stroke-miterlimit:10;}
</style><g
     id="g864"
     transform="matrix(0.20924477,0,0,0.38039002,-3.7680684,-57.410018)"
     style="stroke:#010100;stroke-width:0.468911;stroke-dasharray:none;stroke-opacity:1" /></svg>

<svg xmlns="http://www.w3.org/2000/svg" xmlns:xlink="http://www.w3.org/1999/xlink" xml:space="preserve" width="84" height="84" viewBox="0 0 22.225 22.225"><defs><linearGradient id="b"><stop offset="0" style="stop-color:#ffed91;stop-opacity:1"/><stop offset="1" style="stop-color:#ffd817;stop-opacity:0"/></linearGradient><linearGradient id="a"><stop offset="0" style="stop-color:#cab211;stop-opacity:1"/><stop offset="1" style="stop-color:#ff4a1b;stop-opacity:0"/></linearGradient><linearGradient xlink:href="#a" id="c" x1="5.517" x2="6.86" y1="11.645" y2="9.319" gradientTransform="translate(-2.742 -4.83)scale(1.41971)" gradientUnits="userSpaceOnUse"/><linearGradient xlink:href="#b" id="e" x1="10.661" x2="10.661" y1="5.842" y2="17.449" gradientUnits="userSpaceOnUse"/><clipPath id="g" clipPathUnits="userSpaceOnUse"><path d="M-5-5h32.225v32.225H-5ZM6.783 10.787a1.95 3.546 0 0 0-1.95-3.546 1.95 3.546 0 0 0-1.952 3.546 1.95 3.546 0 0 0 1.951 3.546 1.95 3.546 0 0 0 1.951-3.546z" class="powerclip" style="fill:#fff;fill-opacity:1;fill-rule:nonzero;stroke:#010100;stroke-width:.132292;stroke-linecap:round;stroke-linejoin:bevel;stroke-miterlimit:4;stroke-dasharray:none;stroke-dashoffset:0;stroke-opacity:1;paint-order:markers stroke fill"/></clipPath><clipPath id="f" clipPathUnits="userSpaceOnUse"><path d="M-4.479-4.479h31.183v31.183H-4.48ZM6.783 10.787a1.95 3.546 0 0 0-1.95-3.546 1.95 3.546 0 0 0-1.952 3.546 1.95 3.546 0 0 0 1.951 3.546 1.95 3.546 0 0 0 1.951-3.546z" class="powerclip" style="fill:#fff;fill-opacity:1;fill-rule:nonzero;stroke:#010100;stroke-width:.132292;stroke-linecap:round;stroke-linejoin:bevel;stroke-miterlimit:4;stroke-dasharray:none;stroke-dashoffset:0;stroke-opacity:1;paint-order:markers stroke fill"/></clipPath><clipPath id="d" clipPathUnits="userSpaceOnUse"><path d="M-4.479-4.479h31.183v31.183H-4.48ZM6.783 10.787a1.95 3.546 0 0 0-1.95-3.546 1.95 3.546 0 0 0-1.952 3.546 1.95 3.546 0 0 0 1.951 3.546 1.95 3.546 0 0 0 1.951-3.546z" class="powerclip" style="fill:#fff;fill-opacity:1;fill-rule:nonzero;stroke:#010100;stroke-width:.132292;stroke-linecap:round;stroke-linejoin:bevel;stroke-miterlimit:4;stroke-dasharray:none;stroke-dashoffset:0;stroke-opacity:1;paint-order:markers stroke fill"/></clipPath></defs><path d="M4.832 7.137c-1.108 0-2.008 1.636-2.008 3.65s.9 3.65 2.008 3.65 2.008-1.635 2.008-3.65-.9-3.65-2.008-3.65" style="fill:#fff;stroke:none;stroke-width:.129659;stroke-linecap:round;stroke-linejoin:bevel;paint-order:markers stroke fill"/><ellipse cx="6.13" cy="10.787" rx="1.371" ry="1.402" style="fill:#000;fill-opacity:1;stroke:#000;stroke-width:.375632;stroke-linecap:round;stroke-dasharray:none;stroke-opacity:1"/><ellipse cx="6.13" cy="10.787" rx="1.371" ry="1.402" style="fill:#000;fill-opacity:1;stroke:url(#c);stroke-width:.375632;stroke-linecap:round;stroke-dasharray:none;stroke-opacity:1"/><circle cx="6.629" cy="9.964" r=".328" style="fill:#fff;fill-opacity:1;stroke:#fff;stroke-width:.294693;stroke-linecap:round;stroke-dasharray:none;stroke-opacity:1"/><g stroke="none" style="stroke:#010100;stroke-opacity:1;fill:none"><path d="M21.704 11.113a10.59 10.59 0 0 1-10.591 10.59A10.59 10.59 0 0 1 .52 11.114 10.59 10.59 0 0 1 11.113.52a10.59 10.59 0 0 1 10.59 10.592" clip-path="url(#d)" style="fill:#e9b500;fill-opacity:1;fill-rule:nonzero;stroke:none;stroke-width:1.04246;stroke-linecap:round;stroke-linejoin:round;stroke-miterlimit:4;stroke-dasharray:none;stroke-dashoffset:0;stroke-opacity:1;paint-order:normal"/><path d="M21.704 11.113a10.59 10.59 0 0 1-10.591 10.59A10.59 10.59 0 0 1 .52 11.114 10.59 10.59 0 0 1 11.113.52a10.59 10.59 0 0 1 10.59 10.592" clip-path="url(#f)" style="fill:url(#e);fill-opacity:1;fill-rule:nonzero;stroke:none;stroke-width:1.04246;stroke-linecap:round;stroke-linejoin:round;stroke-miterlimit:4;stroke-dasharray:none;stroke-dashoffset:0;stroke-opacity:1;paint-order:normal"/></g><path d="M21.704 11.113a10.59 10.59 0 0 1-10.591 10.59A10.59 10.59 0 0 1 .52 11.114 10.59 10.59 0 0 1 11.113.52a10.59 10.59 0 0 1 10.59 10.592" clip-path="url(#g)" style="fill:none;fill-opacity:1;fill-rule:nonzero;stroke:#694a03;stroke-width:1.04246;stroke-linecap:round;stroke-linejoin:round;stroke-miterlimit:4;stroke-dasharray:none;stroke-dashoffset:0;stroke-opacity:1;paint-order:normal"/><path d="m3.592 18.57 2.342-.075" style="fill:#ffc703;fill-opacity:1;stroke:#694a03;stroke-width:.98954167;stroke-linecap:round;stroke-dasharray:none;stroke-opacity:1"/></svg>
